X: 10504
T: The WEALTH OF THE COTTAGE IS LOVE.
T: From the Opera of "Paul and Virginia."
C: W. Reeve.
%R: air, waltz
B: W. Hamilton "Universal Tune-Book" Vol. 1 Glasgow 1844 p.50 #4 (and p.51 #1)
S: http://imslp.org/wiki/Hamilton's_Universal_Tune-Book_(Various)
Z: 2016 John Chambers <jc:trillian.mit.edu>
M: 6/8
L: 1/16
K: Bb
%%stretchstaff 0
% - - - - - - - - - - - - - - - - - - - - - - - - -
F2 |\
B3cB2 d3c(BA) | G3AB2 F4F2 |\
e3fe2 (ed)(cB)(cd) | (B6 A4) F2 |\
B3cB2 d3c(BA) | G3AB=B c4cB |\
A3BA2 (Gc)(BA)(BG) | F6 z4F2 |\
(FA)(ce)(cA) F4F2 | (FB)(df)(dB) F4F2 |
(ed)(ed)(cf) (dc)(dc)(Be) | (Hd6 Hc4) (de) |\
f3ed2 f3ed2 | e3fg2 c4 (Bc) |\
(dc)(ed)(cB) Ac3(cd) | B6 z4f2 |\
d3ef2 f3df2 | c3de2 eHc3(Bc) |\
(dc)(ed)(cB) AHf3(cd) | B6 z4 |]
% - - - - - - - - - - - - - - - - - - - - - - - - -

%%sep 1 1 500
%%sep 1 1 500

